assets/icons/human.svg

<?xml version="1.0" encoding="UTF-8" standalone="no"?>
<svg viewBox="0 0 24 24" height="24" width="24" version="1.1" id="svg4" sodipodi:docname="accessibility.svg" inkscape:version="1.1 (ce6663b3b7, 2021-05-25)"
   xmlns:inkscape="http://www.inkscape.org/namespaces/inkscape"
   xmlns:sodipodi="http://sodipodi.sourceforge.net/DTD/sodipodi-0.dtd"
   xmlns="http://www.w3.org/2000/svg"
   xmlns:svg="http://www.w3.org/2000/svg">
   <defs id="defs8" />
   <sodipodi:namedview id="namedview6" pagecolor="#ffffff" bordercolor="#666666" borderopacity="1.0" inkscape:pageshadow="2" inkscape:pageopacity="0.0" inkscape:pagecheckerboard="0" showgrid="true" inkscape:snap-page="true" inkscape:zoom="32" inkscape:cx="13.921875" inkscape:cy="11.125" inkscape:window-width="1920" inkscape:window-height="1043" inkscape:window-x="1920" inkscape:window-y="0" inkscape:window-maximized="1" inkscape:current-layer="svg4">
      <inkscape:grid type="xygrid" id="grid821" />
      <inkscape:grid type="xygrid" id="grid995" dotted="true" spacingx="0.5" spacingy="0.5" empspacing="10" />
   </sodipodi:namedview>
   <path id="path2664" style="color:#000000;fill:#808080;fill-rule:evenodd;stroke-linecap:round;-inkscape-stroke:none" d="M 12 3 C 10.625212 3 9.5 4.1252118 9.5 5.5 C 9.5 6.8747882 10.625212 8 12 8 C 13.374788 8 14.5 6.8747882 14.5 5.5 C 14.5 4.1252118 13.374788 3 12 3 z " />
   <path id="rect971" style="fill:#808080;fill-opacity:1;fill-rule:evenodd;stroke:none;stroke-linecap:round" d="m 3.9960938,9 v 1 h 0.5 c 1.6785698,0 2.7448338,0.355086 3.4101562,1.027344 0.6653227,0.672258 1.0079926,1.744869 1.0253906,3.376953 l 0.064453,6.101562 v 0.494141 h 0.00586 v 0.0059 l 0.5,-0.0059 h 0.4960938 v -0.0059 h 0.00195 v -0.333985 l -0.00195,-0.166015 h 0.00195 v -3.494141 c 0,-1.108 0.892,-2 2,-2 1.108,0 2,0.892 2,2 v 3.494141 c 10e-6,-6e-6 0.0039,5e-6 0.0039,0 l -0.0039,0.25 v 0.25 h 0.0039 v 0.0059 h 0.494141 l 0.5,0.0059 v -0.0059 h 0.0059 v -0.494141 l 0.06445,-6.101562 c 0.0174,-1.632084 0.360068,-2.704695 1.025391,-3.376953 0.665322,-0.672258 1.731586,-1.027344 3.410156,-1.027344 h 0.5 v -1 h -0.5 -4.5 -6.0058591 -4.5 z" sodipodi:nodetypes="ccssccccccccccccsssccccccccccccssccccccc" />
</svg>

<svg height="24" width="24" xmlns="http://www.w3.org/2000/svg"><path style="color:#000;fill:gray;stroke-linecap:round;-inkscape-stroke:none" d="M12 3a2.508 2.508 0 0 0-2.5 2.5C9.5 6.875 10.625 8 12 8s2.5-1.125 2.5-2.5S13.375 3 12 3z"/><path style="fill:gray;fill-opacity:1;stroke:none;stroke-linecap:round" d="M3.996 9v1h.5c1.679 0 2.745.355 3.41 1.027.666.673 1.008 1.745 1.026 3.377l.064 6.102V21h.006v.006l.5-.006h.496v-.006H10v-.334l-.002-.166H10V17c0-1.108.892-2 2-2s2 .892 2 2v3.494h.004l-.004.25v.25h.004V21h.494l.5.006V21h.006v-.494l.064-6.102c.018-1.632.36-2.704 1.026-3.377.665-.672 1.731-1.027 3.41-1.027h.5V9H4.498z"/></svg>
